dist/img/green-arrow.svg

<svg width="20" height="20" viewBox="0 0 20 20" fill="none" xmlns="http://www.w3.org/2000/svg">
<path d="M8.525 14.55L15.6 7.475L14.45 6.35L8.525 12.275L5.525 9.275L4.4 10.4L8.525 14.55ZM10 20C8.63333 20 7.34167 19.7375 6.125 19.2125C4.90833 18.6875 3.84583 17.9708 2.9375 17.0625C2.02917 16.1542 1.3125 15.0917 0.7875 13.875C0.2625 12.6583 0 11.3667 0 10C0 8.61667 0.2625 7.31667 0.7875 6.1C1.3125 4.88333 2.02917 3.825 2.9375 2.925C3.84583 2.025 4.90833 1.3125 6.125 0.7875C7.34167 0.2625 8.63333 0 10 0C11.3833 0 12.6833 0.2625 13.9 0.7875C15.1167 1.3125 16.175 2.025 17.075 2.925C17.975 3.825 18.6875 4.88333 19.2125 6.1C19.7375 7.31667 20 8.61667 20 10C20 11.3667 19.7375 12.6583 19.2125 13.875C18.6875 15.0917 17.975 16.1542 17.075 17.0625C16.175 17.9708 15.1167 18.6875 13.9 19.2125C12.6833 19.7375 11.3833 20 10 20Z" fill="#8AE245"/>
</svg>

<svg width="20" height="20" fill="none" xmlns="http://www.w3.org/2000/svg"><path d="M8.525 14.55 15.6 7.475 14.45 6.35l-5.925 5.925-3-3L4.4 10.4l4.125 4.15ZM10 20a9.676 9.676 0 0 1-3.875-.788 10.144 10.144 0 0 1-3.188-2.15 10.142 10.142 0 0 1-2.15-3.187A9.676 9.676 0 0 1 0 10c0-1.383.263-2.683.787-3.9a9.994 9.994 0 0 1 2.15-3.175A10.25 10.25 0 0 1 6.126.788 9.676 9.676 0 0 1 10 0c1.383 0 2.683.263 3.9.787a10.098 10.098 0 0 1 3.175 2.138c.9.9 1.613 1.958 2.137 3.175A9.738 9.738 0 0 1 20 10a9.676 9.676 0 0 1-.788 3.875 10.25 10.25 0 0 1-2.137 3.188 9.994 9.994 0 0 1-3.175 2.15A9.738 9.738 0 0 1 10 20Z" fill="#8AE245"/></svg>
